!!!COA: des Prez, Josquin
!!!COA: Mouton, Jean
!!!ONB: Probably by Mouton
!!!CDT: ~1450-1521/08/27
!!!OTL: In nomine Jesu
!!!AGN: Motet
!!!SCT: NJE 19.7
!!!SCA: New des Prez, Josquin Edition 19.7
!!!voices: 6
!!!COM: des Prez, Josquin
!!!OTL: Jos1907-In_nomine_Jesu
**kern	**kern	**kern	**kern	**kern	**kern
*part6	*part5	*part4	*part3	*part2	*part1
*staff6	*staff5	*staff4	*staff3	*staff2	*staff1
*Ivox	*Ivox	*Ivox	*Ivox	*Ivox	*Ivox
*I"Bassus	*I"Vagans	*I"Tenor	*I"Altus	*I"Cantus II	*I"Cantus I
*I'B	*I'V	*I'T	*I'A	*I'Cn	*I'Cn
*clefF4	*clefF4	*clefGv2	*clefGv2	*clefG2	*clefG2
*k[]	*k[]	*k[]	*k[]	*k[]	*k[]
*a:	*a:	*a:	*a:	*a:	*a:
*M2/1	*M2/1	*M2/1	*M2/1	*M2/1	*M2/1
*met(C|)	*met(C|)	*met(C|)	*met(C|)	*met(C|)	*met(C|)
=	=	=	=	=	=
!	!LO:TX:X=-40:Z=24:t=Fuga in subdiatesseron [V-->B canon at the lower fourth, 2 breves]	!	!	!LO:TX:X=-40:Z=12:t=Fuga in subdiatesseron [CII->T canon at the lower fourth, 2 breves]	!
0r	0r	0r	0r	0r	1.dd
.	.	.	.	.	2cc
=3	=3	=3	=3	=3	=3
0r	0r	0r	1.d	0r	2b
.	.	.	.	.	2a
.	.	.	.	.	2.b
.	.	.	2c	.	.
.	.	.	.	.	4a
=4	=4	=4	=4	=4	=4
0r	1r	0r	2B	1r	2g
.	.	.	2A	.	1a
.	[1G	.	[1B	[1d	.
.	.	.	.	.	4g
.	.	.	.	.	4f
=5	=5	=5	=5	=5	=5
0r	1G]	0r	1B]	1d]	1g
.	1D	.	[1A	1d	[1a
=6	=6	=6	=6	=6	=6
1r	1.F	1r	1A]	1c	1a]
[1D	.	[1A	1r	1f	1d
.	2G	.	.	.	.
=7	=7	=7	=7	=7	=7
1D]	2A	1A]	1d	1f	2r
.	2B	.	.	.	2dd
1AA	1c	1A	2e	[1e	2cc
.	.	.	2c	.	[2ee
=8	=8	=8	=8	=8	=8
1.C	1c	1G	1.g	1e]	4ee]
.	.	.	.	.	4dd
.	.	.	.	.	1cc
.	[1G	1c	.	1r	.
2D	.	.	2f	.	4b
.	.	.	.	.	4a
=9	=9	=9	=9	=9	=9
2E	1G]	1c	1e	1.g	2.g
2F	.	.	.	.	.
.	.	.	.	.	4a
1G	1r	[1B	1d	.	2.b
.	.	.	.	2g	.
.	.	.	.	.	4cc
=10	=10	=10	=10	=10	=10
1G	0r	1B]	1.d	1g	2dd
.	.	.	.	.	2b
[1D	.	1r	.	1f	1a
.	.	.	2c	.	.
=11	=11	=11	=11	=11	=11
1D]	1r	1.d	1B	1d	2.f
.	.	.	.	.	4g
1r	1D	.	[1A	[1f	2a
.	.	2d	.	.	2d
=12	=12	=12	=12	=12	=12
0r	2D	1d	0A_	1f]	2.a
.	2D	.	.	.	.
.	.	.	.	.	4b
.	1A	1c	.	[1e	[1cc
=13	=13	=13	=13	=13	=13
1r	1.c	1A	1A]	1e]	2cc]
.	.	.	.	.	2dd
1AA	.	[1c	1r	1r	1ee
.	2B	.	.	.	.
=14	=14	=14	=14	=14	=14
2AA	1A	1c]	2r	1e	2r
2AA	.	.	2e	.	2a
1E	1G	[1B	2e	[1g	[1b
.	.	.	2e	.	.
=15	=15	=15	=15	=15	=15
1.G	0r	1B]	2.d	2g]	2b]
.	.	.	.	2g	2cc
.	.	.	4c	.	.
.	.	1r	2B	1d	1dd
2F	.	.	2A	.	.
=16	=16	=16	=16	=16	=16
1E	1r	1B	1G	1e	2r
.	.	.	.	.	2g
1D	1D	[1d	2r	2.f	2a
.	.	.	2B-X	.	[2f
.	.	.	.	4g	.
=17	=17	=17	=17	=17	=17
0r	2D	2d]	2A	2a	2f]
.	1G	2d	2G	2.b-i	1d
.	.	1A	2.d	.	.
.	.	.	.	4a	.
.	2F	.	.	[2a	2a
.	.	.	4d	.	.
=18	=18	=18	=18	=18	=18
1r	1G	1B	2d	4a]	2dd
.	.	.	.	4g	.
.	.	.	2d	4g	2dd
.	.	.	.	4f	.
1AA	2r	2.c	1e	[1a	2.cc
.	[2c	.	.	.	.
.	.	4d	.	.	4b
=19	=19	=19	=19	=19	=19
2AA	2c]	2e	2r	1a]	2a
1D	2A	2.f	2A	.	4g
.	.	.	.	.	4f
.	2.B	.	2G	1r	2g
.	.	4e	.	.	.
2C	.	[2e	2A	.	2e
.	4c	.	.	.	.
=20	=20	=20	=20	=20	=20
1D	1A	4e]	1F	1a	1f
.	.	4d	.	.	.
.	.	4d	.	.	.
.	.	4c	.	.	.
2r	1G	[1e	1E	1b	1g
[2G	.	.	.	.	.
=21	=21	=21	=21	=21	=21
2G]	2r	1e]	2r	1g	0r
2E	1c	.	2.e	.	.
2F	.	1r	.	2a	.
.	.	.	4A	.	.
2G	2B	.	[2d	[2b	.
=22	=22	=22	=22	=22	=22
1E	1G	1e	4d]	4b]	1r
.	.	.	4c	4a	.
.	.	.	4B	1g	.
.	.	.	4A	.	.
1D	1A	1f	2.d	.	1a
.	.	.	.	2f#i	.
.	.	.	4c	.	.
=23	=23	=23	=23	=23	=23
2r	1G	1d	4B	1g	2.dd
.	.	.	4A	.	.
1G	.	.	1B	.	.
.	.	.	.	.	4cc
.	1r	2e	.	1r	2b
2F	.	[2f	2c	.	[2a
=24	=24	=24	=24	=24	=24
1D	0r	4f]	1d	1r	2a]
.	.	4e	.	.	.
.	.	1d	.	.	2f
1E	.	.	2r	1e	1g
.	.	2c#i	2G	.	.
=25	=25	=25	=25	=25	=25
1D	0r	1d	2.A	1.f	4f
.	.	.	.	.	4g
.	.	.	.	.	4a
.	.	.	4G	.	4b
1r	.	1r	2A	.	2cc
.	.	.	2B	2d	2b
=26	=26	=26	=26	=26	=26
0r	0r	1r	1c	1e	2g
.	.	.	.	.	1a
.	.	1B	1G	1d	.
.	.	.	.	.	2g#i
=27	=27	=27	=27	=27	=27
0r	1A	1.c	1r	1.e	0a
.	2A	.	1c	.	.
.	2A	2A	.	2f	.
=28	=28	=28	=28	=28	=28
0r	1G	1B	2d	1g	0r
.	.	.	1e	.	.
.	1F	1A	.	1a	.
.	.	.	2d	.	.
=29	=29	=29	=29	=29	=29
1E	1.G	1.B	0e	2g	0r
.	.	.	.	1g	.
2E	.	.	.	.	.
2E	2G	2c	.	4f	.
.	.	.	.	4e	.
=30	=30	=30	=30	=30	=30
1D	2.A	1d	1r	1f	0r
.	4B	.	.	.	.
1C	1c	1e	1g	1e	.
=31	=31	=31	=31	=31	=31
1.D	1A	2d	2f	0r	1a
.	.	1d	2d	.	.
.	1r	.	1f	.	1a
2D	.	4c	.	.	.
.	.	4B	.	.	.
=32	=32	=32	=32	=32	=32
2.E	0r	1c	1e	0r	1.g
4F	.	.	.	.	.
1G	.	1B	2r	.	.
.	.	.	2d	.	2f
=33	=33	=33	=33	=33	=33
1E	0r	0r	2e	1g	1e
.	.	.	1g	.	.
1r	.	.	.	1a	1d
.	.	.	2f	.	.
=34	=34	=34	=34	=34	=34
0r	0r	0r	2e	1.cc	2c
.	.	.	1a	.	1f
.	.	.	[2g	2b	2g
=35	=35	=35	=35	=35	=35
0r	1r	1d	2g]	1a	2d
.	.	.	2f	.	4a
.	.	.	.	.	4b
.	[1c	1e	2.g	1g	4cc
.	.	.	.	.	4dd
.	.	.	.	.	[2cc
.	.	.	4f	.	.
=36	=36	=36	=36	=36	=36
0r	1c]	1.g	4e	1cc	4cc]
.	.	.	4d	.	4b
.	.	.	2.e	.	2g
.	1G	.	.	1b	1dd
.	.	.	4d	.	.
.	.	2f	[2d	.	.
=37	=37	=37	=37	=37	=37
1r	1A	1e	2d]	1a	1r
.	.	.	2c	.	.
[1G	1B	1d	2.d	2r	2.g
.	.	.	.	[2dd	.
.	.	.	4c	.	4a
=38	=38	=38	=38	=38	=38
1G]	1G	1g	2B	4dd]	4b
.	.	.	.	4cc	4cc
.	.	.	2G	2.b	2.dd
1D	1d	1f	1A	.	.
.	.	.	.	4a	4cc
.	.	.	.	[2a	2a
=39	=39	=39	=39	=39	=39
1E	1B	1e	1r	2a]	1ee
.	.	.	.	2g#i	.
1F	[1A	2r	1c	[1a	2cc
.	.	[2a	.	.	[2ff
=40	=40	=40	=40	=40	=40
1D	2A]	4a]	1d	1a]	4ff]
.	.	4g	.	.	4ee
.	2B	2.f	.	.	2dd
1A	[1c	.	1e	1r	2.cc
.	.	4e	.	.	.
.	.	[2e	.	.	.
.	.	.	.	.	4b
=41	=41	=41	=41	=41	=41
1F	2c]	2e]	1A	0r	2a
.	4B	2d	.	.	4g
.	4A	.	.	.	4f
[1E	1B	[1e	2r	.	[1g
.	.	.	[2G	.	.
=42	=42	=42	=42	=42	=42
2E]	1c	1e]	2G]	1r	2g]
2F	.	.	2A	.	4f
.	.	.	.	.	4e
[1G	2B	1r	2.B	2r	2d
.	2G	.	.	2g	[2dd
.	.	.	4c	.	.
=43	=43	=43	=43	=43	=43
2G]	2.B	0r	2d	2g	2dd]
4F	.	.	2e	2g	2g
4E	4c	.	.	.	.
1F	1A	.	2c	1cc	1a
.	.	.	2A	.	.
=44	=44	=44	=44	=44	=44
1G	1G	1r	1B	2b	2d
.	.	.	.	2g	2e
2F	1r	2r	1A	2a	2.f
2D	.	2d	.	[2f	.
.	.	.	.	.	4g
=45	=45	=45	=45	=45	=45
2.F	0r	2d	2r	4f]	1a
.	.	.	.	4e	.
.	.	2d	2F	1d	.
4G	.	.	.	.	.
1E	.	1g	2G	.	2r
.	.	.	2G	2c#i	2e
=46	=46	=46	=46	=46	=46
1D	1D	2f	4A	1d	2.f
.	.	.	4G	.	.
.	.	2d	4A	.	.
.	.	.	4B	.	4g
1r	[1A	2e	2.c	1r	1a
.	.	[2c	.	.	.
.	.	.	4B	.	.
=47	=47	=47	=47	=47	=47
0r	1A]	4c]	2A	0r	0e
.	.	4B	.	.	.
.	.	1A	4G	.	.
.	.	.	4F	.	.
.	1B	.	1E	.	.
.	.	2G#i	.	.	.
=48	=48	=48	=48	=48	=48
1AA	1.c	1A	1.e	1r	0r
[1E	.	1r	.	[1g	.
.	2B	.	4d	.	.
.	.	.	4c	.	.
=49	=49	=49	=49	=49	=49
1E]	1G	0r	2.B	1g]	1r
.	.	.	4c	.	.
1F	1A	.	4d	1f	[1a
.	.	.	4c	.	.
.	.	.	[2d	.	.
=50	=50	=50	=50	=50	=50
1.G	0B	1r	4d]	1.d	2a]
.	.	.	4c	.	.
.	.	.	4B	.	4g
.	.	.	4A	.	4f
.	.	[1d	1G	.	1g
2F	.	.	.	2e	.
=51	=51	=51	=51	=51	=51
1D	1A	1d]	1A	1f	2r
.	.	.	.	.	2f
1E	1r	1c	2r	[1e	1g
.	.	.	2G	.	.
=52	=52	=52	=52	=52	=52
0F	1r	1.A	1c	2e]	1a
.	.	.	.	4d	.
.	.	.	.	4c	.
.	1D	.	2A	1d	1a
.	.	2B	4G	.	.
.	.	.	4F	.	.
=53	=53	=53	=53	=53	=53
1E	2C	1c	2G	[0el	2r
.	2AA	.	2A	.	1a
1r	1E	[1B	2E	.	.
.	.	.	2B	.	2g
=54	=54	=54	=54	=54	=54
[0E	0AA	2B]	1.c	0e_	2a
.	.	4A	.	.	2e
.	.	4G	.	.	.
.	.	1A	.	.	1a
.	.	.	2d	.	.
=55	=55	=55	=55	=55	=55
0E]	1r	[0Bl	[0el	0e_	[0gl
.	1E	.	.	.	.
=56	=56	=56	=56	=56	=56
0EEl	0El	0B]	0e]	0e]	0g]
==	==	==	==	==	==
*-	*-	*-	*-	*-	*-
!!!RDF**kern: l=long note in original notation
!!!system-decoration: s1,s2,s3,s4,s5,s6
!!!RDF**kern: i = editorial accidental
!!!ENC: Chris Gage 07-01-2014
!!!END: 2020/10/21
!!!EED: Jesse Rodin
!!!EEV: 2020/02/07
!!attribution-level@Jos: 4a (the rest [double question mark])
!!!ONB: Translated from MusicXML and edited on 2020/10/23/ by Craig Sapp
!!muse2ps: C^Probably by Mouton\n@{SCT}^z16i2I150v95,95,95,95,95,150c165
